X:55
T:The Quarryman
C:Charlie Sherrit
I:abc2nwc
M:6/8
L:1/8
K:D
B|:Aff fee|edd d2c|B^AB dcB|A3A2B|Aee e2f|
gfe dcB|[1A^GA BA=G|F3F2G:|[2A^GA ABc|d3d2c
|:Bcd G2B|d2B edB|ABd F2A|d2A fed|cgg gee|
ecc cB_B|[1Aff fee|edd dc=c:|[2A^GA ABc|d3d2|]


